X: 1
T: Dear Adele   [Am]
O: Dave Tarras
R: waltz
Z: 2014 John Chambers <jc:trillian.mit.edu>
M: 3/8
L: 1/16
K: Am
[|\
"Am"e6 | a4e2 | "(E7)"d2c2d2 | "Am"e6 |\
c'2b2a2 | "(Dm)"a2g2f2 | "Am"e6- | "A7"e.A.B.^c.d.e |
|:\
"Dm"f4d2 | "Am"e4c2 | "E7"!d2c2d2 | "Am"e6 |\
"Dm"f4d2 | "Am"e4c2 | "E7"d2c2B2 |[1 "A7".A.A.B.^c.d.e :|[2 "Am"A4 z2 ||
|:\
"Am"A3EAc | "E7"B3^GBd | "Am"c2d2e2 | ~d2c2e2 |\
"Em"g3^f (3(gfe) | "B7"^d2e2^f2 | "E7"e6 | "Am"a6 |
"Am"A3EAc | "G"B3^ABd | "C"c3Bce | "(Dm)"d2c4 |\
"Am"e3^d (3edc | "(E7)"c3B (3cBA |[1 ^G2 "Am"A4- | "(E7)"A2z2E2 :|[2 "Am"A6- | A2z2z2 |]

%%sep 1 1 500

